public/img/python.svg

<svg width="87" height="87" viewBox="0 0 87 87" fill="none" xmlns="http://www.w3.org/2000/svg">
<path d="M34.7456 42.3835H50.4346C50.4346 42.3835 59.2506 42.5249 59.2506 33.8648V19.5424C59.2506 19.5424 60.5882 10.875 43.268 10.875C26.6872 10.875 27.7204 18.0634 27.7204 18.0634L27.7421 25.5128H43.558V27.7494H21.46C21.46 27.7494 10.8496 26.5459 10.8496 43.2716C10.8496 59.9974 20.1115 59.4029 20.1115 59.4029H25.636V51.6418C25.636 51.6418 25.3351 42.3835 34.7456 42.3835ZM34.5426 21.576C33.7879 21.576 33.0641 21.2762 32.5304 20.7425C31.9968 20.2089 31.697 19.4851 31.697 18.7304C31.697 17.9757 31.9968 17.2519 32.5304 16.7182C33.0641 16.1846 33.7879 15.8847 34.5426 15.8847C35.2973 15.8847 36.0211 16.1846 36.5548 16.7182C37.0884 17.2519 37.3882 17.9757 37.3882 18.7304C37.3882 19.4851 37.0884 20.2089 36.5548 20.7425C36.0211 21.2762 35.2973 21.576 34.5426 21.576Z" fill="#EEEEEE"/>
<path d="M66.8885 27.3034H61.364V35.0645C61.364 35.0645 61.6648 44.3227 52.2543 44.3227H36.5653C36.5653 44.3227 27.7493 44.1777 27.7493 52.8415V67.1639C27.7493 67.1639 26.4117 75.8312 43.732 75.8312C60.3091 75.8312 59.276 68.6429 59.276 68.6429L59.2542 61.1971H43.4383V58.9605H65.54C65.54 58.9605 76.1503 60.164 76.1503 43.4382C76.1503 26.7125 66.8885 27.3034 66.8885 27.3034V27.3034ZM52.4573 65.1339C53.212 65.1339 53.9358 65.4337 54.4695 65.9673C55.0032 66.501 55.303 67.2248 55.303 67.9795C55.303 68.7342 55.0032 69.458 54.4695 69.9916C53.9358 70.5253 53.212 70.8251 52.4573 70.8251C51.7026 70.8251 50.9788 70.5253 50.4452 69.9916C49.9115 69.458 49.6117 68.7342 49.6117 67.9795C49.6117 67.2248 49.9115 66.501 50.4452 65.9673C50.9788 65.4337 51.7026 65.1339 52.4573 65.1339V65.1339Z" fill="#EEEEEE"/>
</svg>

<svg xmlns="http://www.w3.org/2000/svg" width="87" height="87" fill="#eee" xmlns:v="https://vecta.io/nano"><path d="M34.746 42.384h15.689s8.816.141 8.816-8.519V19.542s1.338-8.667-15.983-8.667c-16.581 0-15.548 7.188-15.548 7.188l.022 7.449h15.816v2.237H21.46s-10.61-1.204-10.61 15.522 9.262 16.131 9.262 16.131h5.525v-7.761s-.301-9.258 9.11-9.258zm-.203-20.807c-.755 0-1.478-.3-2.012-.834s-.833-1.257-.833-2.012.3-1.479.833-2.012a2.85 2.85 0 0 1 4.024 0c.534.533.833 1.258.833 2.012a2.85 2.85 0 0 1-2.845 2.846zm32.346 5.726h-5.524v7.761s.301 9.258-9.11 9.258h-15.69s-8.816-.145-8.816 8.519v14.322s-1.338 8.667 15.983 8.667c16.577 0 15.544-7.188 15.544-7.188l-.022-7.446H43.438v-2.237H65.54s10.61 1.203 10.61-15.522-9.262-16.135-9.262-16.135h0zM52.457 65.134c.755 0 1.479.3 2.012.833a2.85 2.85 0 0 1 .834 2.012c0 .754-.3 1.478-.834 2.012s-1.257.834-2.012.834-1.478-.3-2.012-.834-.834-1.257-.834-2.012.3-1.478.834-2.012 1.257-.833 2.012-.833h0z"/></svg>
